build/documents/FolderDeleteSolid.svg

<svg xmlns="http://www.w3.org/2000/svg" fill="none" viewBox="0 0 24 24" focusable="false"><path d="M0 0H24V24H0z"/><path fill="#74767B" fill-rule="evenodd" d="M11.8643 18.8767C11.7568 18.4353 11.7002 17.9744 11.7002 17.5C11.7002 15.4451 12.7686 13.6396 14.3804 12.6094C14.4453 12.5681 14.5376 12.5144 14.6265 12.4644C14.792 12.3708 14.897 12.1968 14.897 12.0068C14.897 11.7219 14.666 11.491 14.3813 11.491L14.1343 11.491C13.4033 11.491 12.6978 11.2241 12.1494 10.7405L10.8228 9.57007C10.2749 9.08643 9.56885 8.81958 8.83789 8.81958L5.2998 8.81958L5.2998 5.31372L9.45605 5.31372C9.87061 5.31372 10.2705 5.46484 10.5811 5.73901L11.9077 6.90942C12.6929 7.60254 13.7046 7.98511 14.7524 7.98511L18.7002 7.98511L18.7002 11.05C18.7002 11.4089 18.9912 11.7 19.3501 11.7C19.709 11.7 20 11.4089 20 11.05L20 7.98511C20 7.26709 19.418 6.68506 18.7002 6.68506L14.7524 6.68506C14.0215 6.68506 13.3159 6.41821 12.7676 5.93457L11.4409 4.76416C10.8931 4.28052 10.187 4.01367 9.45605 4.01367L5.2998 4.01367C4.58203 4.01367 4 4.5957 4 5.31372L4 18.6038C4 19.3218 4.58203 19.9038 5.2998 19.9038L11.1313 19.9038C11.6411 19.9038 11.9849 19.3718 11.8643 18.8767ZM20.6821 14.3181C22.4395 16.0754 22.4395 18.9246 20.6821 20.6819C18.9248 22.4395 16.0752 22.4395 14.3179 20.6819C12.5605 18.9246 12.5605 16.0754 14.3179 14.3181C16.0752 12.5605 18.9248 12.5605 20.6821 14.3181ZM16.5405 15.6213C16.2866 15.3674 15.875 15.3674 15.6211 15.6213C15.3672 15.875 15.3672 16.2866 15.6211 16.5405L16.5806 17.5L15.7168 18.3638C15.4629 18.6177 15.4629 19.0293 15.7168 19.283C15.9707 19.5369 16.3823 19.5369 16.6362 19.283L17.5 18.4192L18.4595 19.3789C18.7134 19.6326 19.125 19.6326 19.3789 19.3789C19.6328 19.125 19.6328 18.7134 19.3789 18.4595L18.4194 17.5L19.2832 16.6362C19.5371 16.3823 19.5371 15.9707 19.2832 15.717C19.0293 15.4631 18.6177 15.4631 18.3638 15.717L17.5 16.5808L16.5405 15.6213Z"/></svg>

<svg xmlns="http://www.w3.org/2000/svg" fill="none" viewBox="0 0 24 24" focusable="false"><path fill="#74767B" fill-rule="evenodd" d="M11.86 18.87c-.11-.44-.16-.9-.16-1.37 0-2.06 1.06-3.87 2.68-4.9.06-.04.15-.09.24-.14a.518.518 0 0 0-.24-.97h-.25c-.73 0-1.44-.27-1.99-.75l-1.32-1.17c-.55-.49-1.26-.76-1.99-.76H5.29v-3.5h4.16c.42 0 .82.15 1.13.42L11.9 6.9c.79.7 1.8 1.08 2.85 1.08h3.95v3.07c0 .35.29.65.65.65.35 0 .65-.3.65-.65V7.98c0-.72-.59-1.3-1.3-1.3h-3.95c-.73 0-1.44-.27-1.99-.75l-1.32-1.17c-.55-.48-1.26-.75-1.99-.75H5.29c-.71 0-1.29.58-1.29 1.3V18.6c0 .72.58 1.3 1.29 1.3h5.84c.51 0 .85-.53.73-1.03m8.82-4.56a4.52 4.52 0 0 1 0 6.37 4.52 4.52 0 0 1-6.37 0 4.52 4.52 0 0 1 0-6.37 4.52 4.52 0 0 1 6.37 0m-4.14 1.31a.64.64 0 0 0-.92 0 .64.64 0 0 0 0 .92l.96.96-.87.86c-.25.25-.25.66 0 .92.26.25.67.25.92 0l.87-.87.95.96c.26.26.67.26.92 0a.64.64 0 0 0 0-.92l-.96-.95.87-.87c.25-.25.25-.66 0-.92a.66.66 0 0 0-.92 0l-.86.87z"/></svg>
